icons/copilot-error-16.svg

<svg xmlns="http://www.w3.org/2000/svg" width="16" height="16" viewBox="0 0 16 16"><path d="M.865 2.759v.001l14.82 10.722a.755.755 0 00.188.1.751.751 0 01-1.063 1.025l-1.415-1.024c-.274.147-.613.315-1.008.482C11.296 14.528 9.756 15 8 15c-1.756 0-3.296-.473-4.387-.934a11.947 11.947 0 01-1.654-.859l-.098-.065-.028-.018-.006-.004-.015-.01a10.19 10.19 0 01-.792-.597 5.145 5.145 0 01-.605-.58 2.185 2.185 0 01-.259-.366A1.193 1.193 0 010 11V9.736a2.75 2.75 0 011.52-2.46l.067-.033.167-.838c-.175-.442-.238-.936-.251-1.434L.31 4.107a.75.75 0 01.555-1.348zM7.86 1.77c.05.053.097.107.14.164.043-.057.09-.111.14-.164.681-.731 1.737-.9 2.943-.765 1.23.136 2.145.527 2.724 1.26.566.716.693 1.614.693 2.485 0 .572-.053 1.147-.254 1.655l.168.838.066.033A2.75 2.75 0 0116 9.736V11c0 .24-.086.438-.156.567a1.59 1.59 0 01-.075.125L13 9.688V7.824l-.023-.115c-.49.21-1.075.291-1.727.291-.22 0-.43-.012-.633-.036L6.824 5.22c.082-.233.143-.503.182-.813.117-.936-.038-1.396-.242-1.614-.193-.207-.637-.414-1.681-.298-.707.079-1.144.243-1.424.434l-1.251-.905c.58-.579 1.422-.899 2.51-1.02 1.205-.133 2.26.035 2.943.766zM4.75 8c-.652 0-1.237-.081-1.727-.291L3 7.825v4.26c.387.225.788.426 1.2.6.97.412 2.306.815 3.8.815 1.494 0 2.829-.403 3.801-.815.076-.033.15-.065.22-.097L5.594 7.934A5.158 5.158 0 014.75 8zm4.486-5.207c-.204.218-.359.678-.242 1.614.091.726.303 1.23.618 1.553.299.304.784.54 1.638.54.922 0 1.28-.199 1.442-.38.179-.2.308-.578.308-1.37 0-.765-.123-1.242-.37-1.555-.233-.296-.693-.586-1.713-.7-1.044-.116-1.488.091-1.681.298z"/></svg>

<svg xmlns="http://www.w3.org/2000/svg" width="16" height="16" viewBox="0 0 16 16">
  <defs/>
  <path d="M0.865,2.759 L0.865,2.76 L15.685,13.482 C15.743,13.524 15.806,13.558 15.873,13.582 C16.075,13.884 16.032,14.287 15.771,14.54 C15.509,14.792 15.104,14.82 14.81,14.607 L13.395,13.583 C13.121,13.73 12.782,13.898 12.387,14.065 C11.296,14.528 9.756,15 8,15 C6.244,15 4.704,14.527 3.613,14.066 C3.04,13.823 2.487,13.536 1.959,13.207 L1.861,13.142 L1.833,13.124 L1.827,13.12 L1.812,13.11 C1.539,12.924 1.274,12.725 1.02,12.513 C0.819,12.346 0.595,12.143 0.415,11.933 C0.325,11.828 0.231,11.704 0.156,11.567 C0.086,11.438 0,11.24 0,11 L0,9.736 C0,8.694 0.588,7.742 1.52,7.276 L1.587,7.243 L1.754,6.405 C1.579,5.963 1.516,5.469 1.503,4.971 L0.31,4.107 C0.03,3.904 -0.074,3.535 0.057,3.215 C0.189,2.895 0.523,2.706 0.865,2.759 Z M7.86,1.77 C7.91,1.823 7.957,1.877 8,1.934 C8.043,1.877 8.09,1.823 8.14,1.77 C8.821,1.039 9.877,0.87 11.083,1.005 C12.313,1.141 13.228,1.532 13.807,2.265 C14.373,2.981 14.5,3.879 14.5,4.75 C14.5,5.322 14.447,5.897 14.246,6.405 L14.414,7.243 L14.48,7.276 C15.412,7.742 16,8.694 16,9.736 L16,11 C16,11.24 15.914,11.438 15.844,11.567 C15.821,11.61 15.796,11.651 15.769,11.692 L13,9.688 L13,7.824 L12.977,7.709 C12.487,7.919 11.902,8 11.25,8 C11.03,8 10.82,7.988 10.617,7.964 L6.824,5.22 C6.906,4.987 6.967,4.717 7.006,4.407 C7.123,3.471 6.968,3.011 6.764,2.793 C6.571,2.586 6.127,2.379 5.083,2.495 C4.376,2.574 3.939,2.738 3.659,2.929 L2.408,2.024 C2.988,1.445 3.83,1.125 4.918,1.004 C6.123,0.871 7.178,1.039 7.861,1.77 Z M4.75,8 C4.098,8 3.513,7.919 3.023,7.709 L3,7.825 L3,12.085 C3.387,12.31 3.788,12.511 4.2,12.685 C5.17,13.097 6.506,13.5 8,13.5 C9.494,13.5 10.829,13.097 11.801,12.685 C11.877,12.652 11.951,12.62 12.021,12.588 L5.594,7.934 C5.329,7.978 5.047,8 4.75,8 Z M9.236,2.793 C9.032,3.011 8.877,3.471 8.994,4.407 C9.085,5.133 9.297,5.637 9.612,5.96 C9.911,6.264 10.396,6.5 11.25,6.5 C12.172,6.5 12.53,6.301 12.692,6.12 C12.871,5.92 13,5.542 13,4.75 C13,3.985 12.877,3.508 12.63,3.195 C12.397,2.899 11.937,2.609 10.917,2.495 C9.873,2.379 9.429,2.586 9.236,2.793 Z"/>
</svg>
